icons/in-demand-arrow.svg

<svg width="56" height="56" viewBox="0 0 56 56" fill="none" xmlns="http://www.w3.org/2000/svg">
<path d="M37.4882 39.8702L39.9882 39.8702L37.4882 39.8702ZM35.7205 55.1285C36.6968 56.1048 38.2797 56.1048 39.256 55.1285L55.1659 39.2186C56.1422 38.2423 56.1422 36.6593 55.1659 35.683C54.1896 34.7067 52.6067 34.7067 51.6304 35.683L37.4882 49.8252L23.3461 35.683C22.3698 34.7067 20.7869 34.7067 19.8106 35.6831C18.8342 36.6594 18.8342 38.2423 19.8106 39.2186L35.7205 55.1285ZM34.9882 39.8702L34.9882 53.3607L39.9882 53.3607L39.9882 39.8702L34.9882 39.8702ZM0.593777 5.47575C19.5893 5.47576 34.9882 20.8747 34.9882 39.8702L39.9882 39.8702C39.9882 18.1132 22.3507 0.475756 0.593778 0.475752L0.593777 5.47575Z" fill="white"/>
</svg>

<svg xmlns="http://www.w3.org/2000/svg" width="56" height="56" fill="none"><path fill="#fff" d="M37.488 39.87h2.5zM35.721 55.13a2.5 2.5 0 0 0 3.535 0l15.91-15.91a2.5 2.5 0 0 0-3.536-3.536L37.488 49.825 23.346 35.683a2.5 2.5 0 1 0-3.535 3.536zm-.733-15.259v13.49h5V39.87zM.594 5.476c18.995 0 34.394 15.399 34.394 34.394h5C39.988 18.113 22.351.476.594.476z"/></svg>
